X:1
T:Title
%%score 1 { 2 | 3 }
L:1/8
Q:1/4=81
M:4/4
K:C
V:1 treble nm="Grand Piano, Soprano"
V:2 bass nm="Choir Pad, Kew Gardens, CMD"
V:3 bass 
V:1
 G<c c/BA/- A/GG/- G<E | E<[EG] [EG]/[FA][FB]/- [FB]<[Ec]- [Ec] z | G<c c/BA/- A/GG/- G<[Ec] | %3
w: By~Byron~Burditt,~1906 * * * * * * * * *|||
 [Ge]<[^Fd] [Fe]/[Fd][FA]/- [FA]<[=Fd]- [Fd] z | [FG]<[Ec] [Ec]<[Gd] [Gd]<[Ge] [Fd]<[Ec] | %5
w: ||
 [Fd]/[Ge][Ge]/- [Ge]<[^Fe] [Fd]<[=Fd]- [Fd] z | [FG]<[Ec] [Ec]<[Gd] [Gd]<[Ge] [Ge]<[Af] | %7
w: ||
 [^F_e]<[G=e] [Ge]/[Ge][=Fd]/- [Fd]<[Ec]- [Ec]2- | [Ec]2 z2 z4 |] %9
w: ||
V:2
 G,<C C/B,A,/- A,/G,G,/- G,<E, | E,<G, G,/F,F,/- F,<G,- G, z | G,<C C/B,A,/- A,/G,G,/- G,<G, | %3
 C<A, C/CC/- C<[K:bass]B,- B, z | B,<C C<B, B,<[K:treble]C B,<C | C/CC/- C<[K:bass]A, A,<B,- B, z | %6
 B,<[K:treble]C C<B, B,<C C<C | C<C C/[K:bass]B,G,/- G,<G,- G,2- | G,2 z2 z4 |] %9
V:3
 z8 | z/ C,3/2 .C,>D,- D,<C,- C, z | z4 z2 z/ C,3/2 | C,<D, D,/D,D,/- D,<G,- G, z | %4
 G,<C, C,<G, F,<E, G,<C, | C,/C,A,,/- A,,<D, D,<G,,- G,, z | G,<C, C,<G, G,<G, C,<F, | %7
 ^G,<=G, G,<.G, z/ C,3/2- C,2- | C,2 z2 z4 |] %9

